src/symbolic/status/weather-storm-night-symbolic.svg

<?xml version="1.0" encoding="UTF-8" standalone="no"?>
<svg
   xmlns:dc="http://purl.org/dc/elements/1.1/"
   xmlns:cc="http://creativecommons.org/ns#"
   xmlns:rdf="http://www.w3.org/1999/02/22-rdf-syntax-ns#"
   xmlns:svg="http://www.w3.org/2000/svg"
   xmlns="http://www.w3.org/2000/svg"
   height="16.001"
   width="16"
   version="1.1"
   id="svg8">
  <metadata
     id="metadata14">
    <rdf:RDF>
      <cc:Work
         rdf:about="">
        <dc:format>image/svg+xml</dc:format>
        <dc:type
           rdf:resource="http://purl.org/dc/dcmitype/StillImage" />
        <dc:title></dc:title>
      </cc:Work>
    </rdf:RDF>
  </metadata>
  <defs
     id="defs12" />
  <path
     style="opacity:0.6;vector-effect:none;fill:#555761;fill-opacity:1;stroke:none;stroke-width:1.00000012;stroke-linecap:butt;stroke-linejoin:miter;stroke-miterlimit:4;stroke-dasharray:none;stroke-dashoffset:0;stroke-opacity:1;marker:none;paint-order:normal"
     d="M 9,3.0023046 A 2.5,2.5 0 0 0 6.8359375,4.2562109 1.5,1.5 0 0 0 6,4.0023046 a 1.5,1.5 0 0 0 -1.5,1.5 A 1.5,1.5 0 0 0 4.6015625,6.0452734 2,2 0 0 0 3,8.0023046 2,2 0 0 0 5,10.002305 H 5.7363281 L 6.0078125,7.8753515 A 1.0010538,1.0010538 0 0 1 7,7.0023046 h 2.5 a 1.0010538,1.0010538 0 0 1 0.970703,1.2421875 L 10.28125,8.9983984 h 0.216797 a 1.0010538,1.0010538 0 0 1 1,0.9375 A 2,2 0 0 0 13,8.0023046 2,2 0 0 0 11.435547,6.0511327 2.5,2.5 0 0 0 11.5,5.5023046 a 2.5,2.5 0 0 0 -2.5,-2.5 z"
     id="path859-9-2-5-4-1-7" />
  <path
     style="opacity:1;vector-effect:none;fill:#f9c440;fill-opacity:1;stroke:none;stroke-width:1;stroke-linecap:butt;stroke-linejoin:miter;stroke-miterlimit:4;stroke-dasharray:none;stroke-dashoffset:0;stroke-opacity:1;marker:none"
     d="M 9.5,8.0013509 H 7 L 6.48863,11.998975 8,12.001375 l -0.5,2.997624 3,-5.0000241 -1.5,0.0024 z"
     class="warning"
     id="path1995" />
</svg>

<svg xmlns="http://www.w3.org/2000/svg" height="16.001" width="16"><path style="marker:none" d="M9 3.002a2.5 2.5 0 0 0-2.164 1.254A1.5 1.5 0 0 0 6 4.002a1.5 1.5 0 0 0-1.5 1.5 1.5 1.5 0 0 0 .102.543A2 2 0 0 0 3 8.002a2 2 0 0 0 2 2h.736l.272-2.127A1.001 1.001 0 0 1 7 7.002h2.5a1.001 1.001 0 0 1 .97 1.242l-.189.754h.217a1.001 1.001 0 0 1 1 .938A2 2 0 0 0 13 8.002a2 2 0 0 0-1.564-1.95 2.5 2.5 0 0 0 .064-.55 2.5 2.5 0 0 0-2.5-2.5z" opacity=".6" fill="#555761"/><path style="marker:none" d="M9.5 8.001H7L6.489 12 8 12.001 7.5 15l3-5-1.5.002z" class="warning" fill="#f9c440"/></svg>
